src/images/1.svg

<svg fill="none" height="30" viewBox="0 0 38 30" width="38" xmlns="http://www.w3.org/2000/svg"><path d="m34.0003 0h-29.99997c-1.85 0-3.333338 1.48333-3.333338 3.33333v19.99997c0 1.8334 1.483338 3.3334 3.333338 3.3334h8.33337v3.3333h13.3333v-3.3333h8.3333c1.8334 0 3.3167-1.5 3.3167-3.3334l.0167-19.99997c0-1.85-1.5-3.33333-3.3334-3.33333zm0 23.3333h-29.99997v-19.99997h29.99997zm-8.3333-10-11.6667 6.6667v-13.33333z" fill="#fff"/></svg>

<svg fill="none" height="30" width="38" xmlns="http://www.w3.org/2000/svg"><path d="M34 0H4A3.322 3.322 0 0 0 .667 3.333v20A3.332 3.332 0 0 0 4 26.667h8.334V30h13.333v-3.333H34c1.834 0 3.317-1.5 3.317-3.334l.017-20C37.334 1.483 35.834 0 34 0zm0 23.333H4v-20h30zm-8.333-10L14 20V6.667z" fill="#fff"/></svg>
